dist/img/social-medium.svg

<svg fill="#6D6F7F" xmlns="http://www.w3.org/2000/svg"  viewBox="0 0 50 50" width="50px" height="50px"><path d="M 18 41.578125 C 18 42.46875 17.523438 43 16.847656 43 C 16.609375 43 16.34375 42.933594 16.0625 42.792969 L 5.164063 37.273438 C 4.523438 36.949219 4 36.089844 4 35.367188 L 4 8.3125 C 4 7.597656 4.378906 7.175781 4.921875 7.175781 C 5.113281 7.175781 5.328125 7.226563 5.550781 7.339844 L 5.933594 7.535156 C 5.933594 7.535156 5.9375 7.535156 5.9375 7.535156 L 17.949219 13.617188 C 17.96875 13.628906 17.984375 13.648438 18 13.664063 Z M 30.585938 8.882813 L 31.320313 7.675781 C 31.582031 7.246094 32.0625 7 32.550781 7 C 32.664063 7 32.78125 7.015625 32.894531 7.046875 C 32.980469 7.066406 33.070313 7.097656 33.164063 7.144531 L 45.832031 13.558594 C 45.835938 13.558594 45.835938 13.5625 45.835938 13.5625 L 45.847656 13.566406 C 45.855469 13.570313 45.855469 13.582031 45.863281 13.585938 C 45.925781 13.636719 45.953125 13.722656 45.910156 13.792969 L 33.292969 34.558594 L 32.003906 36.675781 L 23.644531 20.304688 Z M 20 30.605469 L 20 17.5625 L 28.980469 35.15625 L 20.902344 31.066406 Z M 46 41.578125 C 46 42.414063 45.503906 42.890625 44.773438 42.890625 C 44.445313 42.890625 44.070313 42.796875 43.675781 42.597656 L 41.867188 41.679688 L 33.789063 37.589844 L 46 17.496094 Z"/></svg>

<svg fill="#6D6F7F" xmlns="http://www.w3.org/2000/svg" viewBox="0 0 50 50" width="50" height="50"><path d="M18 41.578c0 .89-.477 1.422-1.152 1.422-.239 0-.504-.066-.785-.207l-10.899-5.52C4.524 36.95 4 36.09 4 35.367V8.313c0-.715.379-1.137.922-1.137.191 0 .406.05.629.164l.383.195h.003l12.012 6.082c.02.012.035.031.051.047zM30.586 8.883l.734-1.207c.262-.43.742-.676 1.23-.676.114 0 .231.016.345.047.085.02.175.05.27.098l12.667 6.414c.004 0 .004.004.004.004l.012.003c.007.004.007.016.015.02.063.05.09.137.047.207L33.293 34.559l-1.29 2.117-8.358-16.371zM20 30.605V17.562l8.98 17.594-8.078-4.09zm26 10.973c0 .836-.496 1.313-1.227 1.313-.328 0-.703-.094-1.097-.293l-1.809-.918-8.078-4.09L46 17.496z"/></svg>
